public/images/icones/Nav/Prospects.svg

<?xml version="1.0" encoding="UTF-8"?>
<svg id="Calque_1" data-name="Calque 1" xmlns="http://www.w3.org/2000/svg" viewBox="0 0 1080 1080">
  <defs>
    <style>
      .cls-1, .cls-2 {
        fill: none;
        stroke: #2b2b2b;
        stroke-miterlimit: 10;
        stroke-width: 29px;
      }

      .cls-2 {
        stroke-linecap: round;
      }
    </style>
  </defs>
  <path class="cls-1" d="M473.69,281.77v-67.74c0-36.9,29.91-66.81,66.81-66.81,18.45,0,35.14,7.48,47.24,19.57,12.08,12.09,19.56,28.79,19.56,47.24v67.74"/>
  <path class="cls-2" d="M540.5,275.89c-154.18-.8-215.07,135.22-220.28,209.54-6.71,95.69-3.97,137.28-16,193.47-8.69,40.6-23.2,75.67-37.35,103.01-14.97,28.91,6.19,63.39,38.74,63.39h469.78c32.55,0,53.71-34.48,38.74-63.39-14.16-27.34-28.66-62.42-37.35-103.01-12.03-56.18-9.29-97.78-16-193.47-5.21-74.32-66.09-210.34-220.28-209.54"/>
  <path class="cls-1" d="M613.92,845.31c1.34,5.65,2.05,11.54,2.05,17.59,0,41.97-34.03,76-76,76s-76-34.03-76-76c0-6.05,.71-11.94,2.05-17.59"/>
</svg>

<svg width="1080" height="1080" viewBox="0 0 1080 1080" fill="none" xmlns="http://www.w3.org/2000/svg">
<path d="M473.69 281.77V214.03C473.69 177.13 503.6 147.22 540.5 147.22C558.95 147.22 575.64 154.7 587.74 166.79C599.82 178.88 607.3 195.58 607.3 214.03V281.77" stroke="#2B2B2B" stroke-width="29" stroke-miterlimit="10"/>
<path d="M540.5 275.89C386.32 275.09 325.43 411.11 320.22 485.43C313.51 581.12 316.25 622.71 304.22 678.9C295.53 719.5 281.02 754.57 266.87 781.91C251.9 810.82 273.06 845.3 305.61 845.3H775.39C807.94 845.3 829.1 810.82 814.13 781.91C799.97 754.57 785.47 719.49 776.78 678.9C764.75 622.72 767.49 581.12 760.78 485.43C755.57 411.11 694.69 275.09 540.5 275.89Z" stroke="#2B2B2B" stroke-width="29" stroke-miterlimit="10" stroke-linecap="round"/>
<path d="M613.92 845.31C615.26 850.96 615.97 856.85 615.97 862.9C615.97 904.87 581.94 938.9 539.97 938.9C498 938.9 463.97 904.87 463.97 862.9C463.97 856.85 464.68 850.96 466.02 845.31" stroke="#2B2B2B" stroke-width="29" stroke-miterlimit="10"/>
</svg>
